X: 10339
T: Don Oiche Ud I mBeithil
R: reel
M: 4/4
K: Aminor
E|A>c B A|G A2 B|c d/e/ B>A|G3 E|
A>c B A|G A2 B|c d/e/ B>A|A3 e||
g>e d e|g a2 b/a/|g e/d/ c d|e3 E|
A>c B A|G A2 B|c d/e/ B>A|A3||

